dist/common.blocks/icon/icon__collapse_style_primary.svg

<svg width="24" height="25" viewBox="0 0 24 25" version="1.1" xmlns="http://www.w3.org/2000/svg" xmlns:xlink="http://www.w3.org/1999/xlink">
<g id="Canvas" fill="none">
<g id="plus">
<g id="plus__outside-circle" transform="translate(0 0.0814209)">
<mask id="path-1-inside-1" fill="white">
<path fill-rule="evenodd" clip-rule="evenodd" d="M 0 12C 0 5.37258 5.37258 0 12 0C 18.6274 0 24 5.37258 24 12C 24 18.6274 18.6274 24 12 24C 5.37258 24 0 18.6274 0 12Z"/>
</mask>
<path fill-rule="evenodd" clip-rule="evenodd" d="M 0 12C 0 5.37258 5.37258 0 12 0C 18.6274 0 24 5.37258 24 12C 24 18.6274 18.6274 24 12 24C 5.37258 24 0 18.6274 0 12Z" fill="white"/>
<g mask="url(#path-1-inside-1)">
<path d="M 12 23C 5.92487 23 1 18.0751 1 12L -1 12C -1 19.1797 4.8203 25 12 25L 12 23ZM 23 12C 23 18.0751 18.0751 23 12 23L 12 25C 19.1797 25 25 19.1797 25 12L 23 12ZM 12 1C 18.0751 1 23 5.92487 23 12L 25 12C 25 4.8203 19.1797 -1 12 -1L 12 1ZM 12 -1C 4.8203 -1 -1 4.8203 -1 12L 1 12C 1 5.92487 5.92487 1 12 1L 12 -1Z" fill="#F11F60"/>
</g>
</g>
<path id="plus__inside-circle" fill-rule="evenodd" clip-rule="evenodd" d="M 0 9.67656C 0 4.33234 4.33234 0 9.67656 0C 15.0208 0 19.3531 4.33234 19.3531 9.67656C 19.3531 15.0208 15.0208 19.3531 9.67656 19.3531C 4.33234 19.3531 0 15.0208 0 9.67656Z" transform="translate(2.32349 2.34729)" fill="#F11F60"/>
<g id="plus__plus">
<path id="plus__horizontal-line" d="M 0.359719 1.07916L 8.27354 1.07916" transform="translate(7.91382 11.5138)" stroke-width="2" stroke-linecap="round" stroke-linejoin="round" stroke="white"/>
</g>
</g>
</g>
</svg>

<svg width="24" height="25" xmlns="http://www.w3.org/2000/svg"><g fill="none"><g transform="translate(0 .081)"><mask id="a" fill="#fff"><path fill-rule="evenodd" clip-rule="evenodd" d="M0 12C0 5.373 5.373 0 12 0s12 5.373 12 12-5.373 12-12 12S0 18.627 0 12z"/></mask><path fill-rule="evenodd" clip-rule="evenodd" d="M0 12C0 5.373 5.373 0 12 0s12 5.373 12 12-5.373 12-12 12S0 18.627 0 12z" fill="#fff"/><g mask="url(#a)"><path d="M12 23C5.925 23 1 18.075 1 12h-2c0 7.18 5.82 13 13 13v-2zm11-11c0 6.075-4.925 11-11 11v2c7.18 0 13-5.82 13-13h-2zM12 1c6.075 0 11 4.925 11 11h2c0-7.18-5.82-13-13-13v2zm0-2C4.82-1-1 4.82-1 12h2C1 5.925 5.925 1 12 1v-2z" fill="#F11F60"/></g></g><path fill-rule="evenodd" clip-rule="evenodd" d="M2.323 12.024c0-5.344 4.333-9.677 9.677-9.677 5.344 0 9.677 4.333 9.677 9.677A9.676 9.676 0 0 1 12 21.7c-5.344 0-9.677-4.332-9.677-9.676z" fill="#F11F60"/><path d="M8.274 12.593h7.913" stroke-width="2" stroke-linecap="round" stroke-linejoin="round" stroke="#fff"/></g></svg>
